X: 305645
M: 2/4
L: 1/16
K: D
f2 |\
aaff aaff | ggee ggee | aaff aaff | ggff eedd |\
aaff aaff | ggee ggee | ffdd eecc | d2f2"^D.C."d2 |]


